X: 2
T: Jimmy Lyon's Barndance
R: barndance
S: tradtunes John Adams 2019-10-10
M: 4/4
L: 1/8
K: Gmaj
"C"E2E2 "D"D2D2 | "G"G>A B>G A>G E>D | "C"E2E2 "D"D2B>c | "G"d>B (3ABA G4 :|
"G"B>c d>B "C"c>d e>c | "G"d>B A>G "D"A>G E>D | "G"B>c d>B "C"c>d e>c | "G"d>B "D"(3ABA "G"G4 |
"G"B>c d>B "C"c>d e>c | "G"d>B A>G "D"A>G E>D | "C"E2E2 "G"D2B>c | "G"d>B "D"(3ABA "G"G4 |]
